X:57
T:Ring the Banjo
C:from the playing of John Barry
Q:1/4=210
I:abc2nwc
M:4/4
L:1/8
K:D
A2B2c2|d2d2cB A2|d2d2cB A2|d3d e2d2|
c4B4|Bc d2e3d|c2d2e3d|c2A2B2c2|[1d2:|[2d4
|:f2g2|a4g4|f3f d2fg|a2a2g2f2|e6A2|Bc d2e3d|c2d2e3d|c2A2B2c2|d4:|


